src/assets/bold/lm-text-a-wavy-underline-bold.svg

<svg width="24" height="24" viewBox="0 0 24 24" fill="none" xmlns="http://www.w3.org/2000/svg" fill="currentColor">
<path d="M5.68029 16.4287C5.76942 16.4708 5.86595 16.4948 5.96438 16.4995C6.0628 16.5042 6.16119 16.4894 6.25391 16.4561C6.34663 16.4227 6.43188 16.3715 6.50477 16.3052C6.57766 16.2389 6.63677 16.1588 6.67873 16.0697L8.2406 12.75H15.7594L17.3212 16.0697C17.3632 16.1588 17.4223 16.2388 17.4952 16.3051C17.5681 16.3714 17.6534 16.4226 17.7461 16.456C17.8388 16.4893 17.9372 16.5041 18.0356 16.4994C18.134 16.4947 18.2305 16.4707 18.3197 16.4287C18.4088 16.3868 18.4888 16.3276 18.5551 16.2547C18.6214 16.1818 18.6726 16.0966 18.706 16.0039C18.7393 15.9112 18.7541 15.8128 18.7494 15.7144C18.7447 15.616 18.7207 15.5194 18.6787 15.4303L12.6787 2.6803C12.6182 2.55145 12.5222 2.44251 12.402 2.36619C12.2818 2.28988 12.1423 2.24936 12 2.24936C11.8576 2.24936 11.7182 2.28988 11.598 2.36619C11.4778 2.44251 11.3818 2.55145 11.3212 2.6803L5.32123 15.4303C5.27921 15.5194 5.25517 15.616 5.25047 15.7144C5.24578 15.8128 5.26052 15.9112 5.29387 16.0039C5.32722 16.0966 5.37851 16.1819 5.44481 16.2548C5.51111 16.3277 5.59113 16.3868 5.68029 16.4287ZM12 4.76155L15.0534 11.25H8.94654L12 4.76155Z" fill="black"/>
<path d="M6.69089 20.85C6.93423 20.95 7.16789 21 7.39189 21C7.61256 21 7.84223 20.951 8.08089 20.853C8.31889 20.755 8.52323 20.6373 8.69389 20.5C8.82723 20.3907 8.98723 20.28 9.17389 20.168C9.36056 20.056 9.54156 20 9.71689 20C9.89689 19.9993 10.0716 20.0553 10.2409 20.168C10.4102 20.2807 10.5682 20.3913 10.7149 20.5C10.8896 20.6373 11.0982 20.755 11.3409 20.853C11.5836 20.951 11.8172 21 12.0419 21C12.2666 21 12.5002 20.951 12.7429 20.853C12.9862 20.755 13.1949 20.6373 13.3689 20.5C13.5156 20.3907 13.6779 20.28 13.8559 20.168C14.0339 20.056 14.2126 20 14.3919 20C14.5712 20 14.7469 20.056 14.9189 20.168C15.0902 20.2807 15.2492 20.3913 15.3959 20.5C15.5699 20.6333 15.7786 20.75 16.0219 20.85C16.2652 20.95 16.4969 21 16.7169 21C16.9416 21 17.1796 20.95 17.4309 20.85C17.6822 20.75 17.9012 20.6333 18.0879 20.5C18.2346 20.3913 18.3936 20.2807 18.5649 20.168C18.7362 20.056 18.9119 20 19.0919 20H19.5919V18.75H19.0919C18.8672 18.75 18.6336 18.8 18.3909 18.9C18.1482 19 17.9396 19.1167 17.7649 19.25C17.6189 19.3593 17.4609 19.47 17.2909 19.582C17.1209 19.694 16.9462 19.75 16.7669 19.75C16.5876 19.75 16.4089 19.694 16.2309 19.582C16.0529 19.47 15.8906 19.3593 15.7439 19.25C15.5699 19.1167 15.3602 19 15.1149 18.9C14.8696 18.8 14.6369 18.75 14.4169 18.75C14.1929 18.75 13.9592 18.799 13.7159 18.897C13.4732 18.995 13.2646 19.1127 13.0899 19.25C12.9566 19.3593 12.7976 19.47 12.6129 19.582C12.4282 19.694 12.2462 19.75 12.0669 19.75C11.8876 19.75 11.7096 19.694 11.5329 19.582C11.3569 19.47 11.2022 19.3593 11.0689 19.25C10.8949 19.1127 10.6862 18.995 10.4429 18.897C10.1996 18.799 9.96589 18.75 9.74189 18.75C9.51789 18.75 9.28423 18.799 9.04089 18.897C8.79756 18.995 8.58889 19.1127 8.41489 19.25C8.28156 19.3587 8.12256 19.4693 7.93789 19.582C7.75389 19.694 7.57189 19.75 7.39189 19.75C7.21589 19.75 7.03889 19.694 6.86089 19.582C6.68289 19.47 6.52723 19.3593 6.39389 19.25C6.21923 19.1167 6.01056 19 5.76789 18.9C5.52523 18.8 5.29156 18.75 5.06689 18.75H4.56689V20H5.06689C5.24289 19.9993 5.41989 20.0553 5.59789 20.168C5.77589 20.2807 5.93156 20.3913 6.06489 20.5C6.23889 20.6333 6.44756 20.75 6.69089 20.85Z" fill="black"/>
</svg>

<svg xmlns="http://www.w3.org/2000/svg" width="24" height="24" fill="currentColor" viewBox="0 0 24 24">
  <path d="M5.68 16.429a.749.749 0 0 0 .999-.36L8.24 12.75h7.518l1.562 3.32a.751.751 0 0 0 1.358-.64l-6-12.75a.75.75 0 0 0-1.358 0l-6 12.75a.75.75 0 0 0 .36.999ZM12 4.762l3.053 6.488H8.947L12 4.762ZM6.69 20.85c.244.1.478.15.702.15.22 0 .45-.049.689-.147a2.49 2.49 0 0 0 .613-.353c.133-.11.293-.22.48-.332.187-.112.368-.168.543-.168a.93.93 0 0 1 .524.168c.17.113.327.223.474.332.175.137.383.255.626.353.243.098.476.147.7.147.226 0 .46-.049.702-.147a2.53 2.53 0 0 0 .626-.353c.147-.11.309-.22.487-.332a.999.999 0 0 1 .536-.168c.18 0 .355.056.527.168.171.113.33.223.477.332.174.133.383.25.626.35.243.1.475.15.695.15.225 0 .463-.05.714-.15.251-.1.47-.217.657-.35.147-.109.306-.22.477-.332a.952.952 0 0 1 .527-.168h.5v-1.25h-.5c-.225 0-.458.05-.701.15a2.76 2.76 0 0 0-.626.35c-.146.11-.304.22-.474.332a.941.941 0 0 1-.524.168.999.999 0 0 1-.536-.168 7.513 7.513 0 0 1-.487-.332 2.714 2.714 0 0 0-.63-.35 1.85 1.85 0 0 0-.697-.15c-.224 0-.458.049-.701.147a2.554 2.554 0 0 0-.626.353 4.14 4.14 0 0 1-.477.332 1.049 1.049 0 0 1-.546.168.99.99 0 0 1-.534-.168 4.784 4.784 0 0 1-.464-.332 2.53 2.53 0 0 0-.626-.353 1.874 1.874 0 0 0-.701-.147c-.224 0-.458.049-.701.147a2.53 2.53 0 0 0-.626.353c-.133.109-.292.22-.477.332a1.045 1.045 0 0 1-.546.168.992.992 0 0 1-.531-.168 4.615 4.615 0 0 1-.467-.332 2.76 2.76 0 0 0-.626-.35c-.243-.1-.476-.15-.701-.15h-.5V20h.5a.98.98 0 0 1 .53.168c.179.113.335.223.468.332.174.133.383.25.626.35Z"/>
</svg>
